svg/blobs-icons/no-decorations/cd-player.svg

<svg xmlns="http://www.w3.org/2000/svg" xmlns:xlink="http://www.w3.org/1999/xlink" preserveAspectRatio="xMidYMid" width="216" height="191" viewBox="0 0 216 191"><defs><style>.cls-3{fill:#142a3b}.cls-4{fill:#000;opacity:.35}.cls-5{fill:#ededed}.cls-14{fill:#2476ff}.cls-16{fill:#ff3a2f}.cls-17{fill:#fbb713}</style></defs><g id="group-112svg"><path d="M215.548 190.32s-215.54.0-215.54.0S.008.009.008.009s215.54.0 215.54.0.0 190.311.0 190.311z" id="path-1" class="cls-3" fill-rule="evenodd"/><path d="M202.077.009s0 180.208.0 180.208-202.069.0-202.069.0.0 10.103.0 10.103 215.54.0 215.54.0.0-190.311.0-190.311-13.471.0-13.471.0z" id="path-2" class="cls-4" fill-rule="evenodd"/><path d="M162.809 95.166c0 37.99-30.798 68.786-68.789 68.786-37.991.0-68.789-30.796-68.789-68.786.0-37.991 30.798-68.788 68.789-68.788s68.789 30.797 68.789 68.788z" id="path-3" class="cls-5" fill-rule="evenodd"/><path d="M136.823 41.372c15.819 12.604 25.986 31.997 25.986 53.794.0 37.99-30.798 68.786-68.789 68.786C82.183 163.952 71.047 160.958 61.32 155.693c11.753 9.362 26.61 14.995 42.803 14.995 37.992.0 68.79-30.797 68.79-68.788.0-26.152-14.599-48.893-36.09-60.528z" id="path-4" class="cls-4" fill-rule="evenodd"/><path d="M105.772 95.166C105.772 101.656 100.51 106.917 94.02 106.917c-6.49.0-11.751-5.261-11.751-11.751C82.269 88.674 87.53 83.414 94.02 83.414 100.51 83.414 105.772 88.674 105.772 95.166z" id="path-5" class="cls-3" fill-rule="evenodd"/><path d="M94.02 83.414C93.443 83.414 92.891 83.504 92.336 83.583 98.022 84.408 102.404 89.251 102.404 95.166 102.404 101.079 98.022 105.923 92.336 106.747 92.891 106.827 93.443 106.917 94.02 106.917 100.51 106.917 105.772 101.656 105.772 95.166 105.772 88.674 100.51 83.414 94.02 83.414z" id="path-6" class="cls-4" fill-rule="evenodd"/><path d="M200.217 37.842c0 7.997-6.482 14.479-14.477 14.479C177.743 52.321 171.261 45.839 171.261 37.842c0-7.996 6.482-14.477 14.479-14.477 7.995.0 14.477 6.481 14.477 14.477z" id="path-7" class="cls-5" fill-rule="evenodd"/><path d="M195.259 27.012C198.275 29.666 200.217 33.51 200.217 37.842c0 7.996-6.482 14.479-14.477 14.479C184.785 52.321 183.857 52.216 182.955 52.039 185.505 54.283 188.811 55.689 192.475 55.689 200.471 55.689 206.953 49.206 206.953 41.21 206.953 34.168 201.921 28.312 195.259 27.012z" id="path-8" class="cls-4" fill-rule="evenodd"/><path d="M32.548 163.952C32.548 167.994 29.271 171.269 25.231 171.269 21.19 171.269 17.914 167.994 17.914 163.952 17.914 159.911 21.19 156.635 25.231 156.635 29.271 156.635 32.548 159.911 32.548 163.952z" id="path-9" class="cls-5" fill-rule="evenodd"/><path d="M31.788 160.762C32.26 161.73 32.548 162.804 32.548 163.952 32.548 167.994 29.271 171.269 25.231 171.269 24.082 171.269 23.009 170.98 22.042 170.509 23.229 172.945 25.706 174.636 28.598 174.636c4.041.0 7.317-3.27500000000001 7.317-7.316.0-2.892-1.692-5.369-4.127-6.55799999999999z" id="path-10" class="cls-4" fill-rule="evenodd"/><path d="M142.79 113.198C141.863 113.198 140.939 112.842 140.235 112.133 138.841 110.723 138.852 108.448 140.262 107.051L146.144 101.232C147.548 99.828 147.548 97.523 146.131 96.106 144.014 93.989 142.862 91.058 142.97 88.065 143.074 85.175 144.348 82.429 146.475 80.478l35.679-42.217C183.435 36.746 185.701 36.555 187.216 37.835 188.732 39.116 188.922 41.383 187.641 42.899L151.406 85.707C150.632 86.374 150.186 87.304 150.15 88.325 150.112 89.346 150.49 90.304 151.211 91.027 155.429 95.245 155.429 102.106 151.211 106.325L145.317 112.16C144.616 112.852 143.704 113.198 142.79 113.198z" id="path-11" class="cls-4" fill-rule="evenodd"/><path d="M128.127 111.082C127.208 111.082 126.289 110.731 125.587 110.03 124.184 108.627 124.184 106.354 125.587 104.949l13.808-13.807C140.813 89.724 140.813 87.421 139.395 86.002 137.279 83.886 136.126 80.956 136.234 77.963 136.341 74.969 137.704 72.129 139.969 70.17l40.556-35.046C182.023 33.828 184.293 33.991 185.593 35.496 186.888 36.995 186.723 39.264 185.223 40.562L144.668 75.606C143.897 76.271 143.451 77.203 143.414 78.222 143.377 79.243 143.754 80.201 144.475 80.925 146.519 82.967 147.645 85.684 147.645 88.573 147.645 91.461 146.519 94.178 144.475 96.222L130.667 110.03C129.965 110.731 129.047 111.082 128.127 111.082z" id="path-12" class="cls-14" fill-rule="evenodd"/><path d="M119.667 140.588s-7.685-7.685-7.685-7.685C111.418 132.338 111.418 131.424 111.982 130.859l22.278-22.276C134.824 108.019 135.738 108.019 136.302 108.583L143.988 116.268C144.553 116.831 144.553 117.747 143.988 118.31L121.71 140.588C121.145 141.151 120.231 141.151 119.667 140.588z" id="path-13" class="cls-4" fill-rule="evenodd"/><path d="M112.932 130.485S105.246 122.799 105.246 122.799C104.682 122.234 104.682 121.32 105.246 120.756l22.278-22.277C128.088 97.915 129.003 97.915 129.567 98.479L137.253 106.166C137.816 106.729 137.816 107.644 137.253 108.207l-22.279 22.278C114.41 131.048 113.496 131.048 112.932 130.485z" id="path-14" class="cls-16" fill-rule="evenodd"/><path d="M196.918 171.404s-18.057.0-18.057.0.0-39.552.0-39.552 18.057.0 18.057.0.0 39.552.0 39.552z" id="path-15" class="cls-17" fill-rule="evenodd"/><path d="M196.918 135.219s0 36.185.0 36.185-14.69.0-14.69.0S182.228 174.771 182.228 174.771s18.057.0 18.057.0.0-39.552.0-39.552S196.918 135.219 196.918 135.219z" id="path-16" class="cls-4" fill-rule="evenodd"/></g></svg>

<svg xmlns="http://www.w3.org/2000/svg" xmlns:xlink="http://www.w3.org/1999/xlink" preserveAspectRatio="xMidYMid" width="216" height="191" viewBox="0 0 216 191">
  <defs>
    <style>

      .cls-3 {
        fill: #142a3b;
      }

      .cls-4 {
        fill: #000000;
        opacity: 0.35;
      }

      .cls-5 {
        fill: #ededed;
      }

      .cls-14 {
        fill: #2476ff;
      }

      .cls-16 {
        fill: #ff3a2f;
      }

      .cls-17 {
        fill: #fbb713;
      }
    </style>
  </defs>
  <g id="group-112svg">
    <path d="M215.548,190.320 C215.548,190.320 0.008,190.320 0.008,190.320 C0.008,190.320 0.008,0.009 0.008,0.009 C0.008,0.009 215.548,0.009 215.548,0.009 C215.548,0.009 215.548,190.320 215.548,190.320 Z" id="path-1" class="cls-3" fill-rule="evenodd"/>
    <path d="M202.077,0.009 C202.077,0.009 202.077,180.217 202.077,180.217 C202.077,180.217 0.008,180.217 0.008,180.217 C0.008,180.217 0.008,190.320 0.008,190.320 C0.008,190.320 215.548,190.320 215.548,190.320 C215.548,190.320 215.548,0.009 215.548,0.009 C215.548,0.009 202.077,0.009 202.077,0.009 Z" id="path-2" class="cls-4" fill-rule="evenodd"/>
    <path d="M162.809,95.166 C162.809,133.156 132.011,163.952 94.020,163.952 C56.029,163.952 25.231,133.156 25.231,95.166 C25.231,57.175 56.029,26.378 94.020,26.378 C132.011,26.378 162.809,57.175 162.809,95.166 Z" id="path-3" class="cls-5" fill-rule="evenodd"/>
    <path d="M136.823,41.372 C152.642,53.976 162.809,73.369 162.809,95.166 C162.809,133.156 132.011,163.952 94.020,163.952 C82.183,163.952 71.047,160.958 61.320,155.693 C73.073,165.055 87.930,170.688 104.123,170.688 C142.115,170.688 172.913,139.891 172.913,101.900 C172.913,75.748 158.314,53.007 136.823,41.372 Z" id="path-4" class="cls-4" fill-rule="evenodd"/>
    <path d="M105.772,95.166 C105.772,101.656 100.510,106.917 94.020,106.917 C87.530,106.917 82.269,101.656 82.269,95.166 C82.269,88.674 87.530,83.414 94.020,83.414 C100.510,83.414 105.772,88.674 105.772,95.166 Z" id="path-5" class="cls-3" fill-rule="evenodd"/>
    <path d="M94.020,83.414 C93.443,83.414 92.891,83.504 92.336,83.583 C98.022,84.408 102.404,89.251 102.404,95.166 C102.404,101.079 98.022,105.923 92.336,106.747 C92.891,106.827 93.443,106.917 94.020,106.917 C100.510,106.917 105.772,101.656 105.772,95.166 C105.772,88.674 100.510,83.414 94.020,83.414 Z" id="path-6" class="cls-4" fill-rule="evenodd"/>
    <path d="M200.217,37.842 C200.217,45.839 193.735,52.321 185.740,52.321 C177.743,52.321 171.261,45.839 171.261,37.842 C171.261,29.846 177.743,23.365 185.740,23.365 C193.735,23.365 200.217,29.846 200.217,37.842 Z" id="path-7" class="cls-5" fill-rule="evenodd"/>
    <path d="M195.259,27.012 C198.275,29.666 200.217,33.510 200.217,37.842 C200.217,45.838 193.735,52.321 185.740,52.321 C184.785,52.321 183.857,52.216 182.955,52.039 C185.505,54.283 188.811,55.689 192.475,55.689 C200.471,55.689 206.953,49.206 206.953,41.210 C206.953,34.168 201.921,28.312 195.259,27.012 Z" id="path-8" class="cls-4" fill-rule="evenodd"/>
    <path d="M32.548,163.952 C32.548,167.994 29.271,171.269 25.231,171.269 C21.190,171.269 17.914,167.994 17.914,163.952 C17.914,159.911 21.190,156.635 25.231,156.635 C29.271,156.635 32.548,159.911 32.548,163.952 Z" id="path-9" class="cls-5" fill-rule="evenodd"/>
    <path d="M31.788,160.762 C32.260,161.730 32.548,162.804 32.548,163.952 C32.548,167.994 29.271,171.269 25.231,171.269 C24.082,171.269 23.009,170.980 22.042,170.509 C23.229,172.945 25.706,174.636 28.598,174.636 C32.639,174.636 35.915,171.361 35.915,167.320 C35.915,164.428 34.223,161.951 31.788,160.762 Z" id="path-10" class="cls-4" fill-rule="evenodd"/>
    <path d="M142.790,113.198 C141.863,113.198 140.939,112.842 140.235,112.133 C138.841,110.723 138.852,108.448 140.262,107.051 C140.262,107.051 146.144,101.232 146.144,101.232 C147.548,99.828 147.548,97.523 146.131,96.106 C144.014,93.989 142.862,91.058 142.970,88.065 C143.074,85.175 144.348,82.429 146.475,80.478 C146.475,80.478 182.154,38.261 182.154,38.261 C183.435,36.746 185.701,36.555 187.216,37.835 C188.732,39.116 188.922,41.383 187.641,42.899 C187.641,42.899 151.406,85.707 151.406,85.707 C150.632,86.374 150.186,87.304 150.150,88.325 C150.112,89.346 150.490,90.304 151.211,91.027 C155.429,95.245 155.429,102.106 151.211,106.325 C151.211,106.325 145.317,112.160 145.317,112.160 C144.616,112.852 143.704,113.198 142.790,113.198 Z" id="path-11" class="cls-4" fill-rule="evenodd"/>
    <path d="M128.127,111.082 C127.208,111.082 126.289,110.731 125.587,110.030 C124.184,108.627 124.184,106.354 125.587,104.949 C125.587,104.949 139.395,91.142 139.395,91.142 C140.813,89.724 140.813,87.421 139.395,86.002 C137.279,83.886 136.126,80.956 136.234,77.963 C136.341,74.969 137.704,72.129 139.969,70.170 C139.969,70.170 180.525,35.124 180.525,35.124 C182.023,33.828 184.293,33.991 185.593,35.496 C186.888,36.995 186.723,39.264 185.223,40.562 C185.223,40.562 144.668,75.606 144.668,75.606 C143.897,76.271 143.451,77.203 143.414,78.222 C143.377,79.243 143.754,80.201 144.475,80.925 C146.519,82.967 147.645,85.684 147.645,88.573 C147.645,91.461 146.519,94.178 144.475,96.222 C144.475,96.222 130.667,110.030 130.667,110.030 C129.965,110.731 129.047,111.082 128.127,111.082 Z" id="path-12" class="cls-14" fill-rule="evenodd"/>
    <path d="M119.667,140.588 C119.667,140.588 111.982,132.903 111.982,132.903 C111.418,132.338 111.418,131.424 111.982,130.859 C111.982,130.859 134.260,108.583 134.260,108.583 C134.824,108.019 135.738,108.019 136.302,108.583 C136.302,108.583 143.988,116.268 143.988,116.268 C144.553,116.831 144.553,117.747 143.988,118.310 C143.988,118.310 121.710,140.588 121.710,140.588 C121.145,141.151 120.231,141.151 119.667,140.588 Z" id="path-13" class="cls-4" fill-rule="evenodd"/>
    <path d="M112.932,130.485 C112.932,130.485 105.246,122.799 105.246,122.799 C104.682,122.234 104.682,121.320 105.246,120.756 C105.246,120.756 127.524,98.479 127.524,98.479 C128.088,97.915 129.003,97.915 129.567,98.479 C129.567,98.479 137.253,106.166 137.253,106.166 C137.816,106.729 137.816,107.644 137.253,108.207 C137.253,108.207 114.974,130.485 114.974,130.485 C114.410,131.048 113.496,131.048 112.932,130.485 Z" id="path-14" class="cls-16" fill-rule="evenodd"/>
    <path d="M196.918,171.404 C196.918,171.404 178.861,171.404 178.861,171.404 C178.861,171.404 178.861,131.852 178.861,131.852 C178.861,131.852 196.918,131.852 196.918,131.852 C196.918,131.852 196.918,171.404 196.918,171.404 Z" id="path-15" class="cls-17" fill-rule="evenodd"/>
    <path d="M196.918,135.219 C196.918,135.219 196.918,171.404 196.918,171.404 C196.918,171.404 182.228,171.404 182.228,171.404 C182.228,171.404 182.228,174.771 182.228,174.771 C182.228,174.771 200.285,174.771 200.285,174.771 C200.285,174.771 200.285,135.219 200.285,135.219 C200.285,135.219 196.918,135.219 196.918,135.219 Z" id="path-16" class="cls-4" fill-rule="evenodd"/>
  </g>
</svg>
